X: 1643
T: Kath McCaughey's Maypole Polka No 1
B: australian traditional tunes wiki
M:2/4
L:1/8
R: Polka
Q: 1/4=100
K:G
V:1 
"G"G>A B>e|dB2c|de/d/ "D7"cA|"G"GB2A|G>A B>e|dB B>c|"D7"de/d/ cF|A"G"G3:|
|:"G"B>d ge|dBB2|de/d/ "D7"cA|"G"GB2c|dB/d/ ge|dB B>c|"D7"de/d/ cA|AG"G"G2:|
% abcbook-tune_id 6342d53a5582c783772c5564


% abcbook-boost 0
% abcbook-tablature 
% abcbook-transpose 
% abcbook-lastupdated 1665324375699
% abcbook-soundfonts 
% abcbook-repeats 1
% NFF Book 2022
% Bush Traditions recording played by Ray Mulligan

